X: 68
M: 6/8
L: 1/8
K: D
!segno!d2d |\
dcd ecA | A3 gfb | ad'a agf | e2A d2d |\
dcd ecA | Bef gab | afd gec | !fine!Hd3 :|
|: ABA |\
fdB |\
dcB d'b^g | ^e^dc def | cc'a ^gf^e | f3 a2a |\
a2d' c'2b | {b}a2g {g}f2e | fag fed | cBA !segno!|]


